X: 2
T: Amours fait moult tant / Il est de bonne heure n\'e / Tant que nostre argent
N: Derived from Jap3002-Amours_fait_moult_tant__Il_est_de_bonne_heure_ne__Tant_que_nostre_argent_dura.krn
C: Jean Japart
%%abc-version 2.0
%%abcx-abcm2ps-target-version 5.9.1 (29 Sep 2008)
%%abc-creator hum2abc beta
%%abcx-conversion-date 2019/02/16 20:40:05
%%abc-edited-by Jesse Rodin
%%abc-edited-by Chris Gage 09-04-2013
%%abcx-initial-encoding-date 2013/10/18/
%%humdrum-veritas 4156985725
%%humdrum-veritas-data 85608261
%%linebreak <none>
%%barnumbers 0
L: 1/4
M: 2/1
Q: 1/2=120
%%staves [1 2 3 4]
V: 1 clef=treble
V: 2 clef=treble-8
V: 3 clef=treble-8
V: 4 clef=bass
K: F
[V:1] G6E2 | 
[V:2] G8 | 
[V:3] G4G4 | 
[V:4] z8 | 
[V:1] F4F4 | 
[V:2] D8 | 
[V:3] A4A4 | 
[V:4] z8 | 
[V:1] G4G4 | 
[V:2] G4d4- | 
[V:3] B4B4 | 
[V:4] G,,4G,,4 | 
[V:1] A6GF | 
[V:2] d8 | 
[V:3] A8 | 
[V:4] D,4D,4 | 
[V:1] E4G4- | 
[V:2] G4c4- | 
[V:3] z8 | 
[V:4] E,4E,4 | 
[V:1] G2ABc4- | 
[V:2] c8 | 
[V:3] G4G4 | 
[V:4] C,8 | 
[V:1] c2B2A4- | 
[V:2] F8 | 
[V:3] A4A4 | 
[V:4] z8 | 
[V:1] A2GFG4 | 
[V:2] G8 | 
[V:3] B4B4 | 
[V:4] z8 | 
[V:1] A8 | 
[V:2] D2F3GA2- | 
[V:3] A4d4- | 
[V:4] D,4D,4 | 
[V:1] D4E4 | 
[V:2] ADA4G2 | 
[V:3] d4^c4 | 
[V:4] F,4E,4 | 
[V:1] F3GABA2- | 
[V:2] A8 | 
[V:3] d4d2cB | 
[V:4] D,8- | 
[V:1] AG^FEF4 | 
[V:2] z4d4 | 
[V:3] A2G2A4 | 
[V:4] D,8 | 
[V:1] G8 | 
[V:2] B4G2B2- | 
[V:3] G4z4 | 
[V:4] z8 | 
[V:1] z4G4 | 
[V:2] BAGFE4 | 
[V:3] G4G4 | 
[V:4] z8 | 
[V:1] F4E2F2- | 
[V:2] D4C2D2- | 
[V:3] A8 | 
[V:4] z8 | 
[V:1] F2G3FG2- | 
[V:2] D2E3DE2- | 
[V:3] B8 | 
[V:4] z8 | 
[V:1] GEA3GFE | 
[V:2] ECF3GA2 | 
[V:3] c4c4 | 
[V:4] z8 | 
[V:1] D4C3D | 
[V:2] B2G4^F2 | 
[V:3] B4A4 | 
[V:4] z8 | 
[V:1] _E2D4C2- | 
[V:2] G4z4 | 
[V:3] G3FG2A2- | 
[V:4] z8 | 
[V:1] CB,A,G,A,4 | 
[V:2] z4c4 | 
[V:3] AG^FE^F4 | 
[V:4] z8 | 
[V:1] G,8 | 
[V:2] B3AB2c2- | 
[V:3] G4z4 | 
[V:4] _E,8 | 
[V:1] z4C4 | 
[V:2] cBAGA4 | 
[V:3] z8 | 
[V:4] F,8 | 
[V:1] B,2C2D4- | 
[V:2] G4B4- | 
[V:3] z8 | 
[V:4] G,8- | 
[V:1] D2G,2D4- | 
[V:2] B4A4 | 
[V:3] z8 | 
[V:4] G,4F,4 | 
[V:1] D2E2F4- | 
[V:2] F6G2 | 
[V:3] z8 | 
[V:4] D,6E,2 | 
[V:1] F2E2D4- | 
[V:2] A4B4- | 
[V:3] z8 | 
[V:4] F,4G,4 | 
[V:1] D4^C4 | 
[V:2] B2A2G4 | 
[V:3] G4G4 | 
[V:4] E,8 | 
[V:1] !fermata!D8 | 
[V:2] !fermata!F8 | 
[V:3] !fermata!A8 | 
[V:4] !fermata!D,8 | 
[V:1] z4G4 | 
[V:2] G8 | 
[V:3] B8 | 
[V:4] z8 | 
[V:1] G4A4 | 
[V:2] C4F4 | 
[V:3] c8 | 
[V:4] z8 | 
[V:1] D8 | 
[V:2] B,3CD4 | 
[V:3] B4A4 | 
[V:4] D,4F,4 | 
[V:1] E4F4- | 
[V:2] z8 | 
[V:3] G4F2G2 | 
[V:4] E,4D,4 | 
[V:1] F2E2D4 | 
[V:2] z4D4 | 
[V:3] A3BG4- | 
[V:4] C,4B,,4 | 
[V:1] C6B,A, | 
[V:2] E4C4 | 
[V:3] G4^F4 | 
[V:4] A,,8 | 
[V:1] B,4C4 | 
[V:2] D2G2E2F2 | 
[V:3] G4z4 | 
[V:4] G,,4A,,4 | 
[V:1] D4E4- | 
[V:2] D4C4- | 
[V:3] G4G4 | 
[V:4] B,,4C,4 | 
[V:1] E2F3GA2- | 
[V:2] C2z2F4 | 
[V:3] A4A4 | 
[V:4] A,,8 | 
[V:1] A2GFG4 | 
[V:2] G8 | 
[V:3] B4B4 | 
[V:4] z8 | 
[V:1] A6c2- | 
[V:2] E4A4- | 
[V:3] A8 | 
[V:4] A,,6B,,2 | 
[V:1] c2BAG4 | 
[V:2] A2G2E4 | 
[V:3] z8 | 
[V:4] C,4C,4 | 
[V:1] F3GABA2- | 
[V:2] D4F4- | 
[V:3] z8 | 
[V:4] D,8- | 
[V:1] AGFED4 | 
[V:2] F2D2G4- | 
[V:3] z8 | 
[V:4] D,4B,,4 | 
[V:1] z4D4- | 
[V:2] G2A2B4- | 
[V:3] z8 | 
[V:4] G,,8 | 
[V:1] D4E4 | 
[V:2] B2A2G4- | 
[V:3] G4G4 | 
[V:4] B,,4C,4 | 
[V:1] C8 | 
[V:2] G4^F4 | 
[V:3] A4A4 | 
[V:4] A,,8 | 
[V:1] D4G,2G2- | 
[V:2] G4B4 | 
[V:3] B4B4 | 
[V:4] G,,8 | 
[V:1] GFA4GF | 
[V:2] c4d4 | 
[V:3] A4A4 | 
[V:4] z4D,4 | 
[V:1] E2A6 | 
[V:2] e4c2f2- | 
[V:3] c4c4 | 
[V:4] C,4F,4 | 
[V:1] D2B3AG2 | 
[V:2] fed4c2 | 
[V:3] B4G4 | 
[V:4] G,4E,4 | 
[V:1] F2G4^F2 | 
[V:2] d8- | 
[V:3] A8 | 
[V:4] D,8 | 
[V:1] G8 |]  
[V:2] d8 |]  
[V:3] G8 |]  
[V:4] G,,8 |]  



